FINK
CUT[GRUEN IST DIE FARBE DER HOFFNUNG]
REG[Europa, Mitteleuropa, Deutschland]
KEY[F0666  16  G 6/8]
MEL[5_  5__3_3_.23_  4__.2__
    2_  3__1_1_.23_  2___0_
    -5_  1__2_3_.21_  2__.-5__
    2_  3__2_1_.23_  2__.-5__
    5_  5__.3__.  4__2_2__
    4_  3__1_2_3_2_  1___0__  0__
    3_2_3_2_  1__.0__ //] >>
FCT[Staende -, Jaeger - Lied]
